symbols/web/shuffle_on/materialsymbolsoutlined/shuffle_on_wght500grad200_48px.svg

<svg xmlns="http://www.w3.org/2000/svg" height="48" width="48"><path d="M5.4 46.2q-1.45 0-2.525-1.075T1.8 42.6V5.35q0-1.45 1.075-2.525T5.4 1.75h37.25q1.45 0 2.525 1.075T46.25 5.35V42.6q0 1.45-1.075 2.525T42.65 46.2Zm14.3-24.3 2.4-2.4L9.7 7.2 7.3 9.6Zm9.2 18.8h11.85V28.85h-3.4v6.1l-9-8.9-2.3 2.35 8.8 8.9H28.9Zm-19.25.05 27.7-27.65v6h3.4V7.25H28.9v3.4h6.05L7.3 38.35Z"/></svg>

<svg xmlns="http://www.w3.org/2000/svg" height="48" width="48"><path d="M5.4 46.2Q3.95 46.2 2.875 45.125Q1.8 44.05 1.8 42.6V5.35Q1.8 3.9 2.875 2.825Q3.95 1.75 5.4 1.75H42.65Q44.1 1.75 45.175 2.825Q46.25 3.9 46.25 5.35V42.6Q46.25 44.05 45.175 45.125Q44.1 46.2 42.65 46.2ZM19.7 21.9 22.1 19.5 9.7 7.2 7.3 9.6ZM28.9 40.7H40.75V28.85H37.35V34.95L28.35 26.05L26.05 28.4L34.85 37.3H28.9ZM9.65 40.75 37.35 13.1V19.1H40.75V7.25H28.9V10.65H34.95L7.3 38.35Z"/></svg>
